!!!COM: Schiørring, Niels
!!!CDT: 1743-1798
!!!OPR@@DA: Choral-Bog
!!!ONM: 1
!!!OTL@@DA: Ach! Herre from
**kern	**fb	**kern	**kern	**kern	**kern	**kern	**kern	**kern
*part6	*part6	*part6	*part5	*part5	*part4	*part3	*part2	*part1
*staff8	*	*staff7	*staff6	*staff5	*staff4	*staff3	*staff2	*staff1
*clefF4	*	*clefC1	*clefF4	*clefC1	*clefF4	*clefC4	*clefC3	*clefC1
*mclefF4	*	*mclefG2	*mclefF4	*mclefG2	*mclefF4	*mclefGv2	*mclefG2	*mclefG2
*k[]	*	*k[]	*k[]	*k[]	*k[]	*k[]	*k[]	*k[]
*M4/4	*	*M4/4	*M4/4	*M4/4	*M4/4	*M4/4	*M4/4	*M4/4
*met(c)	*	*met(c)	*met(c)	*met(c)	*met(c)	*met(c)	*met(c)	*met(c)
*MM180	*	*MM180	*MM180	*MM180	*MM180	*MM180	*MM180	*MM180
*	*above	*	*	*	*	*	*	*
*	*slash	*	*	*	*	*	*	*
*	*	*	*^	*^	*	*	*	*
=1	=1	=1	=1	=1	=1	=1	=1	=1	=1	=1
2C	.	2cc	2e>	2C	2cc	2g	2C	2e	2g	2cc
=2	=2	=2	=2	=2	=2	=2	=2	=2	=2	=2
2G	.	2b	2d	2G	2b	2g	2G	2d	2g	2b
2D	7 #	2aM	2c	2D	2aM	2f#X	2D	2c	2f#Xm	2aM
=3	=3	=3	=3	=3	=3	=3	=3	=3	=3	=3
2GG;<	.	2g;	2B;y	2G;	2g;	2d;y	2GG;	2B;	2g;	2g;
2C	-7	2g	2B-X	2C	2g	2e	2C	2B-X	2e	2g
=4	=4	=4	=4	=4	=4	=4	=4	=4	=4	=4
2F	.	2a	2A	2F	2a	2c	2F	2A	2c	2a
2D	6	2bm	2F	2D	2bm	2f	2D	2F	2d	2bm
=5	=5	=5	=5	=5	=5	=5	=5	=5	=5	=5
2C;<	.	2cc;	2G;y	2C;	2cc;	2e;y	2C;	2G;	2e;	2cc;
2GG	.	2dd	2G	2GG	2dd	2b	2GG	2B	2g	2dd
=6	=6	=6	=6	=6	=6	=6	=6	=6	=6	=6
2AA	#6\	2cc	2F#X	2AA	2cc	2a	2AA	2c	2f#X	2cc
4BB	6	2b	2G	4BB	2b	2d	(4BB	2d	2g	2b
4C	.	.	.	4C	.	.	4C)	.	.	.
=7	=7	=7	=7	=7	=7	=7	=7	=7	=7	=7
2D	#	2a	2F#X	2D	2a	1d	2D	2d	2f#X	2a
2GG	.	2b	[2G	2GG	2b	.	2GG	2d	[2g	2b
=8	=8	=8	=8	=8	=8	=8	=8	=8	=8	=8
2C	6 5	1aM	2G]	2C	1aM	2e	(2C	(2e	(2g]	1aM
2D	#	.	2F#X	2D	.	2d	2D)	4d	2f#Xm)	.
.	.	.	.	.	.	.	.	4c)	.	.
=9	=9	=9	=9	=9	=9	=9	=9	=9	=9	=9
*	*	*	*	*	*	*^	*	*	*	*
2GG;<	.	2g;	2G;y	2GG;	2g;	2B;y	2d/;y	2GG;	2B;	2g;	2g;
2E	6	2cc	2G	2E	2cc	2c	2g/	2E	2c	2g	2cc
*	*	*	*	*	*	*v	*v	*	*	*	*
=10	=10	=10	=10	=10	=10	=10	=10	=10	=10	=10
2D	6	2b	2F	2D	2b	2d	2D	2d	2fnX	2b
2C	.	2ccM	2E	2C	2ccM	2g	2C	2e	2g	2ccM
=11	=11	=11	=11	=11	=11	=11	=11	=11	=11	=11
2GG;<	.	2dd;	2G;y	2GG;	2dd;	2b;y	2GG;	2B;	2g;	2dd;
2BB	6	2dd	2G	2BB	2dd	2g	2BB	2d	2g	2dd
=12	=12	=12	=12	=12	=12	=12	=12	=12	=12	=12
2C	.	2ee	2c	2C	2ee	2g	2C	2c	2g	2ee
2AA	#6\	2ccM	2c	2A	2ccM	2f#X	2AA	2c	2f#X	2ccM
=13	=13	=13	=13	=13	=13	=13	=13	=13	=13	=13
2GG;<	.	2dd;	2B;y	2G;	2dd;	2d;y	2GG;	2B;	2d;	2dd;
2E	6	2g	2c	2E	2g	2g	2E	2c	2g	2g
=14	=14	=14	=14	=14	=14	=14	=14	=14	=14	=14
2E-X	4 2	2a	2c	2E-X	2a	2f	2E-X	2c	2fnX	2a
2D	6	2b	2d	2D	2b	2f	2D	2d	2f	2b
=15	=15	=15	=15	=15	=15	=15	=15	=15	=15	=15
2EnX	6	2cc	2c	2EnX	2cc	2g	2EnX	2c	2g	2cc
2C	.	2ee	[2c	2C	2ee	2g	2C	[2c	2g	2ee
=16	=16	=16	=16	=16	=16	=16	=16	=16	=16	=16
2F	6 5	1ddM	2c]	2F	1ddM	2a	2F	(2c]	(2a	1ddM
2G	.	.	2B	2G	.	2g	2G	2Bm)	4g	.
.	.	.	.	.	.	.	.	.	4f)	.
=17	=17	=17	=17	=17	=17	=17	=17	=17	=17	=17
2C;<	.	2cc;	2c;y	2C;	2cc;	2g 2e;y	2C;	2c;	2e;	2cc;
*	*	*	*v	*v	*	*	*	*	*	*
*	*	*	*	*v	*v	*	*	*	*
==	==	==	==	==	==	==	==	==
*-	*-	*-	*-	*-	*-	*-	*-	*-
!!!system-decoration: {(s1,s2,s3,s4)}{(s5,s6)}{(s7,s8)}
!!!RDF**kern: i = editorial accidental, paren
!!!RDF**kern: > = above
!!!RDF**kern: < = below
!!!AGN: chorale
!!!EED: Derek Remeš
!!!EED2: Victor Phan
!!!END: 2023/11/28
!!!ENC: Wolfgang Drescher
!!!EEV: 2023/12/12
!!!title: @{ONM}. @{OTL}
!!!verovio: mnumInterval 1